X:1
T: Ribbonmen
C:
R:Jig
Q:180
K:A
M:6/8
L:1/16
|:e2e2d2 c2A2c2|e6 e2f2g2|a4e2 e2d2c2|B2B2B2 B4d2|
e2e2d2 c2A2c2|e6 e2f2g2|a4e2 e2d2c2|B2A2A2 A6:|
|:c2e2e2 e2f2e2|c2e2e2 e2f2e2|d2f2f2 f2g2f2|d2f2f2 f2g2f2|
c2e2e2 e2f2e2|c2e2e2 e2f2g2|a4e2 d2c2B2|B2A2A2 A6:|
